svgs/duotone/wallet.svg

<svg xmlns="http://www.w3.org/2000/svg" viewBox="0 0 512 512"><!--! Font Awesome Pro 6.4.0 by @fontawesome - https://fontawesome.com License - https://fontawesome.com/license (Commercial License) Copyright 2023 Fonticons, Inc. --><defs><style>.fa-secondary{opacity:.4}</style></defs><path class="fa-primary" d="M48 128H96v0l352 0c.4 0 .9 0 1.3 0c11.2 .2 21.6 3.6 30.7 8.9v-.3c19.1 11.1 32 31.7 32 55.4V416c0 35.3-28.7 64-64 64H64c-35.3 0-64-28.7-64-64V240 192 80c0 26.5 21.5 48 48 48zM416 336a32 32 0 1 0 0-64 32 32 0 1 0 0 64z"/><path class="fa-secondary" d="M0 80C0 53.5 21.5 32 48 32H432c26.5 0 48 21.5 48 48V96v32 8.6c-9.4-5.4-20.3-8.6-32-8.6l-64 0v0H48C21.5 128 0 106.5 0 80z"/></svg>

<svg xmlns="http://www.w3.org/2000/svg" viewBox="0 0 512 512"><!--! Font Awesome Pro 6.3.0 by @fontawesome - https://fontawesome.com License - https://fontawesome.com/license (Commercial License) Copyright 2023 Fonticons, Inc. --><defs><style>.fa-secondary{opacity:.4}</style></defs><path class="fa-primary" d="M48 127.1L448 128C448.4 128 448.9 128 449.3 128C460.5 128.3 470.9 131.6 480 136.9V136.6C499.1 147.6 512 168.3 512 192V416C512 451.3 483.3 480 448 480H64C28.65 480 0 451.3 0 416V80C0 106.5 21.49 128 48 128L48 127.1zM416 336C433.7 336 448 321.7 448 304C448 286.3 433.7 272 416 272C398.3 272 384 286.3 384 304C384 321.7 398.3 336 416 336z"/><path class="fa-secondary" d="M0 80C0 53.49 21.49 32 48 32H432C458.5 32 480 53.49 480 80V136.6C470.6 131.1 459.7 128 448 128L48 128C21.49 128 0 106.5 0 80V80z"/></svg>
